lib/functional/media/television.svg

<svg xmlns="http://www.w3.org/2000/svg" fill="none" stroke="currentColor" aria-hidden="true" viewBox="0 0 32 32"><g id="Icon-Television"><g clip-path="url(#clip0_12_2737)"><g id="size=md (32px)"><path id="Vector" stroke-linecap="round" stroke-linejoin="round" stroke-width="2" d="M27 9H5C4.44772 9 4 9.44772 4 10V25C4 25.5523 4.44772 26 5 26H27C27.5523 26 28 25.5523 28 25V10C28 9.44772 27.5523 9 27 9Z"/><path id="Vector_2" stroke-linecap="round" stroke-linejoin="round" stroke-width="2" d="M10 3L16 9L22 3"/><path id="Vector_3" fill="#101828" d="M23.5 16C24.3284 16 25 15.3284 25 14.5C25 13.6716 24.3284 13 23.5 13C22.6716 13 22 13.6716 22 14.5C22 15.3284 22.6716 16 23.5 16Z"/><path id="Vector_4" fill="#101828" d="M23.5 22C24.3284 22 25 21.3284 25 20.5C25 19.6716 24.3284 19 23.5 19C22.6716 19 22 19.6716 22 20.5C22 21.3284 22.6716 22 23.5 22Z"/><path id="Vector_5" stroke-linecap="round" stroke-linejoin="round" stroke-width="2" d="M19 26V9"/></g></g></g><defs><clipPath id="clip0_12_2737"><rect width="32" height="32" fill="white" rx="5"/></clipPath></defs></svg>

<svg xmlns="http://www.w3.org/2000/svg" fill="none" stroke="currentColor" aria-hidden="true" viewBox="0 0 32 32"><g clip-path="url(#a)"><path stroke-linecap="round" stroke-linejoin="round" stroke-width="2" d="M27 9H5a1 1 0 0 0-1 1v15a1 1 0 0 0 1 1h22a1 1 0 0 0 1-1V10a1 1 0 0 0-1-1ZM10 3l6 6 6-6"/><path fill="#101828" d="M23.5 16a1.5 1.5 0 1 0 0-3 1.5 1.5 0 0 0 0 3Zm0 6a1.5 1.5 0 1 0 0-3 1.5 1.5 0 0 0 0 3Z"/><path stroke-linecap="round" stroke-linejoin="round" stroke-width="2" d="M19 26V9"/></g><defs><clipPath id="a"><rect width="32" height="32" fill="#fff" rx="5"/></clipPath></defs></svg>
